X:1
T: SCHLAF KINDLEIN SCHLAF
N: K0001
O: Europa, Mitteleuropa, Deutschland, Hessen ?
R: Kinder -, Wiegen - Lied
M: 2/4
L: 1/8
K: F
 | A2GG | F2z
C | AAGG | F2z
F | BBGG | ccA
A | BBGG | ccA2 |
B2GG | F2z2

@@@ Tune index: 7338
